src/styles/Icons/assets/category/telefon.svg

<svg xmlns="http://www.w3.org/2000/svg" width="30" height="30"><path fill="#7787C2" d="M30 15c0 8.3-6.7 15-15 15S0 23.3 0 15 6.7 0 15 0s15 6.7 15 15"/><path fill="#FFF" d="M20.3 4.5H9.7c-.5 0-.7.4-.7.9v19.3c0 .5.3.7.7.7h10.7c.5 0 1-.2 1-.7V5.4c-.1-.6-.6-.9-1.1-.9zM12 6.4c-.8 0-.8-.8 0-.8s.8.8 0 .8zm3.1 18.7c-1.5 0-1.5-2 0-2 1.6 0 1.6 2 0 2zM10.5 7.8H20c0 4.1-.2 12.1-.2 14.4h-9.3V7.8zm6.2-1h-3.1c-.8 0-.8-1.5 0-1.5h3.1v1.5z"/></svg>

<?xml version="1.0" encoding="utf-8"?>
<!-- Generator: Adobe Illustrator 20.1.0, SVG Export Plug-In . SVG Version: 6.00 Build 0)  -->
<svg version="1.1" id="Layer_1" xmlns="http://www.w3.org/2000/svg" xmlns:xlink="http://www.w3.org/1999/xlink" x="0px" y="0px"
	 width="30px" height="30px" viewBox="0 0 30 30" enable-background="new 0 0 30 30" xml:space="preserve">
<g>
	<path fill="#7787C2" d="M30,15c0,8.3-6.7,15-15,15C6.7,30,0,23.3,0,15C0,6.7,6.7,0,15,0C23.3,0,30,6.7,30,15"/>
	<path fill="#FFFFFF" d="M20.3,4.5H9.7c-0.5,0-0.7,0.4-0.7,0.9v19.3c0,0.5,0.3,0.7,0.7,0.7h10.7c0.5,0,1-0.2,1-0.7V5.4
		C21.3,4.8,20.8,4.5,20.3,4.5z M12,6.4c-0.8,0-0.8-0.8,0-0.8C12.8,5.6,12.8,6.4,12,6.4z M15.1,25.1c-1.5,0-1.5-2,0-2
		C16.7,23.1,16.7,25.1,15.1,25.1z M10.5,7.8c2.3,0,8.7,0,9.5,0c0,4.1-0.2,12.1-0.2,14.4c-1.8,0-8.5,0-9.3,0
		C10.5,19.9,10.5,11.5,10.5,7.8z M16.7,6.8h-3.1c-0.8,0-0.8-1.5,0-1.5h3.1V6.8z"/>
</g>
</svg>
